X: 40820
T: Train Journey North, The
R: hornpipe
M: 4/4
K: Dmajor
d/|:d2 f>A d>fA>d|f>Ad>f A>d f2|g2 e>c A>ce>c|c>eA>c e>cf>e|
d2 f>A d>fA>d|f>Ad>f A>d f2|g2 e>c A>ce>c|1 (3ccc e>g f>dd>A:|2 (3ccc e>g f>dd>f||
|:a2 f>d (3ddd a>f|g>f e>d c>d e>f|g2 e>c A>c e>c|d>e f>g a2 f>g|
a2 f>d (3ddd a>f|g>f e>d c>d e>f|g2 e>c A>ce>c|1 (3ccc e>g f>dd>f:|2 (3ccc e>g f>dd>A||
K: Dmin
|:d2 f>A d>fA>d|d2 f>A d>fA>d|(3ccc e>A (3ccc e>A|(3^ccc e>A (3ccc e>A|
d2 f>A d>fA>d|(3ddd f>A d>fA>d|(3ccc e>f g2 e>c|1 (3ccc e>g f>dd>A:|2 (3ccc e>g f>dd>f||
|:a2 f>d (3ddd a>f|g>fe>d ^c>de>f|g2 e>^c A>c e>c|d>e f>g a>f g>_a|
=a2 f>d (3ddd a>f|g>fe>d ^c>de>f|g2 e>^c A>ce>c|1 (3^ccc e>g f>dd>f:|2 (3^ccc e>g f>dd>A||

